projects/ccf-eui/src/assets/icons/organ-icons/organ-icon-pelvis.svg

<svg width="64" height="64" viewBox="0 0 64 64" fill="currentColor" xmlns="http://www.w3.org/2000/svg">
<g clip-path="url(#clip0_1795_352)">
<path d="M23.0198 19.1899C23.0198 19.1899 21.4922 19.7637 21.3564 21.2996C21.2207 22.8354 21.7808 26.0928 22.239 27.1392C22.6973 28.1857 22.7652 28.5063 22.4936 28.8776C22.2221 29.249 21.7299 30.1097 21.5771 31.4768C21.4243 32.8439 21.5262 33.7384 22.1712 34.8354C22.8161 35.9325 24.7511 37.5865 25.4809 38.0591C26.2108 38.5317 26.3805 38.7848 27.1443 38.9198C27.9081 39.0549 32.1514 39.7806 32.1514 39.9662C32.1514 40.1519 32.0325 42.2785 32.1514 42.4473C32.2702 42.616 32.5417 42.3966 32.372 43.1392C32.2023 43.8819 31.3197 44.6076 30.2673 44.7257C29.215 44.8439 29.4187 45.9409 27.8741 46.5317C26.3296 47.1224 24.3607 48.4895 22.6973 47.7975C21.034 47.1055 21.0849 46.4304 20.8982 45.8565C20.7115 45.2827 21.0849 43.6625 20.2871 42.5823C19.4894 41.5021 18.3861 40.135 18.505 39.4768C18.6238 38.8186 18.6407 38.4979 19.3366 39.0042C20.0325 39.5106 22.9689 40.3713 22.9689 40.3713C22.9689 40.3713 22.0693 43.3418 23.8854 44.135C25.7016 44.9283 27.7383 44.2363 28.2475 43.7806C28.7567 43.3249 29.6733 42.5992 29.4187 42.0422C29.1641 41.4852 29.2489 40.962 27.3649 40.5401C25.4809 40.1181 23.2744 40.3544 21.2885 39.4093C19.3027 38.4641 17.232 37.3671 16.7737 36.1688C16.3154 34.9705 16.1627 33.0802 15.8402 32C15.5177 30.9198 14.2787 28.8776 13.5488 28.6414C12.819 28.4051 10.6294 28.3207 10.1202 27.4093C9.61104 26.4979 8.74541 24.2194 9.08487 21.8228C9.42434 19.4262 9.81472 17.1983 11.3253 16.4557C12.8359 15.7131 15.6704 16 17.86 16.3882C20.0495 16.7764 20.8642 17.3165 21.4922 17.7722C22.1202 18.2279 23.0538 18.8354 23.0198 19.1899Z" />
<path d="M42.9802 19.1899C42.9802 19.1899 44.5078 19.7637 44.6436 21.2996C44.7794 22.8354 44.2193 26.0928 43.761 27.1392C43.3027 28.1857 43.2348 28.5063 43.5064 28.8776C43.778 29.2489 44.2702 30.1097 44.423 31.4768C44.5757 32.8439 44.4739 33.7384 43.8289 34.8354C43.1839 35.9325 41.249 37.5865 40.5191 38.0591C39.7893 38.5316 39.6196 38.7848 38.8558 38.9198C38.092 39.0549 33.8487 39.7806 33.8487 39.9662C33.8487 40.1519 33.9675 42.2785 33.8487 42.4473C33.7299 42.616 33.4583 42.3966 33.628 43.1392C33.7978 43.8819 34.6804 44.6076 35.7327 44.7257C36.785 44.8439 36.5814 45.9409 38.1259 46.5316C39.6705 47.1224 41.6394 48.4895 43.3027 47.7975C44.9661 47.1055 44.9152 46.4304 45.1019 45.8565C45.2886 45.2827 44.9152 43.6624 45.7129 42.5823C46.5106 41.5021 47.6139 40.135 47.4951 39.4768C47.3763 38.8186 47.3593 38.4979 46.6634 39.0042C45.9675 39.5106 43.0312 40.3713 43.0312 40.3713C43.0312 40.3713 43.9307 43.3418 42.1146 44.135C40.2985 44.9283 38.2617 44.2363 37.7525 43.7806C37.2433 43.3249 36.3268 42.5992 36.5814 42.0422C36.836 41.4852 36.7511 40.962 38.6351 40.5401C40.5191 40.1181 42.7256 40.3544 44.7115 39.4093C46.6974 38.4641 48.7681 37.3671 49.2263 36.1688C49.6846 34.9705 49.8374 33.0802 50.1599 32C50.4824 30.9198 51.7214 28.8776 52.4512 28.6414C53.1811 28.4051 55.3706 28.3207 55.8798 27.4093C56.389 26.4979 57.2377 24.2025 56.8982 21.789C56.5587 19.3755 56.1684 17.1646 54.6408 16.4388C53.1132 15.7131 50.2957 15.9662 48.1061 16.3713C45.9166 16.7764 45.1019 17.2996 44.4739 17.7553C43.8459 18.211 42.9123 18.8186 42.9463 19.173L42.9802 19.1899Z" />
<path d="M24.2249 19.3249C24.2249 19.3249 23.7327 19.2067 23.4271 19.9325C23.1216 20.6582 22.3409 22.1097 22.4766 23.8143C22.6124 25.519 23.3423 26.8354 23.1895 27.8312C23.0368 28.827 22.867 29.3333 22.6803 29.4515C22.4936 29.5696 22.1881 29.9409 23.0537 30.1435C23.9194 30.346 24.4286 29.9747 24.802 29.7553C25.1754 29.5359 26.041 29.6709 26.669 30.7342C27.297 31.7975 28.3833 34.4641 29.3168 34.7173C30.2503 34.9705 31.6591 34.8861 31.7779 35.5612C31.8967 36.2363 31.3706 36.4894 31.3027 36.5232C31.2348 36.557 30.2164 36.8608 30.3352 37.2321C30.454 37.6034 31.4045 37.789 31.6082 38.3797C31.8119 38.9705 32.1853 39.2911 32.4399 39.5949C32.6945 39.8987 32.389 41.9747 32.6266 42.0591C32.8642 42.1435 33.4922 42.2616 33.594 41.8903C33.6959 41.519 33.3394 39.6962 33.594 39.6287C33.8486 39.5612 34.3069 39.1224 34.4597 38.7173C34.6124 38.3122 34.9689 37.8565 35.6478 37.6034C36.3267 37.3502 35.6138 36.9114 34.867 36.4895C34.1202 36.0675 34.2051 35.3924 34.6803 35.2067C35.1556 35.0211 36.785 35.1055 37.4469 34.1772C38.1089 33.2489 39.0424 30.8523 39.7044 30.1941C40.3663 29.5359 41.0622 29.3671 41.6563 29.9409C42.2503 30.5148 43.3706 30.1435 43.3875 29.9409C43.4045 29.7384 42.2673 27.7975 42.4031 27.0886C42.5389 26.3797 43.2857 24.1181 43.2348 23.173C43.1839 22.2278 42.8614 19.8987 42.3691 19.4768C41.8769 19.0548 41.1641 20.135 40.3154 20.7426C39.4667 21.3502 38.9066 21.9578 37.1245 21.4177C35.3423 20.8776 34.1032 21.097 32.6775 21.0464C31.2517 20.9958 28.57 21.5527 27.942 21.519C27.314 21.4852 25.7694 20.692 25.2602 20.2194C24.751 19.7468 24.6492 19.4937 24.2418 19.3249H24.2249Z" />
</g>
<defs>
<clipPath id="clip0_1795_352">
<rect width="48" height="32"  transform="translate(9 16)"/>
</clipPath>
</defs>
</svg>

<svg xmlns="http://www.w3.org/2000/svg" width="64" height="64" fill="currentColor" viewBox="0 0 64 64"><g clip-path="url(#a)"><path d="M23.02 19.19s-1.528.574-1.664 2.11c-.135 1.535.425 4.793.883 5.84s.526 1.366.255 1.738c-.272.371-.764 1.232-.917 2.599s-.05 2.261.594 3.358c.645 1.097 2.58 2.752 3.31 3.224s.9.726 1.663.86c.764.136 5.007.862 5.007 1.047 0 .186-.119 2.313 0 2.481.12.169.39-.05.221.692-.17.743-1.052 1.469-2.105 1.587s-.848 1.215-2.393 1.806c-1.544.59-3.513 1.958-5.177 1.266-1.663-.693-1.612-1.368-1.799-1.942s.187-2.193-.61-3.274c-.799-1.08-1.902-2.447-1.783-3.105s.136-.98.832-.473c.695.507 3.632 1.367 3.632 1.367s-.9 2.97.916 3.764 3.853.101 4.362-.354c.51-.456 1.426-1.182 1.172-1.739-.255-.557-.17-1.08-2.054-1.502s-4.09-.186-6.076-1.13c-1.986-.946-4.057-2.043-4.515-3.241-.459-1.198-.611-3.089-.934-4.169-.322-1.08-1.561-3.122-2.291-3.359-.73-.236-2.92-.32-3.429-1.232s-1.375-3.19-1.035-5.586.73-4.625 2.24-5.367c1.51-.743 4.345-.456 6.535-.068s3.004.928 3.632 1.384 1.562 1.063 1.528 1.418M42.98 19.19s1.528.574 1.664 2.11c.135 1.535-.425 4.793-.883 5.84s-.526 1.366-.255 1.738c.272.37.764 1.232.917 2.599s.05 2.261-.594 3.358c-.645 1.097-2.58 2.752-3.31 3.224s-.9.726-1.663.86c-.764.136-5.007.862-5.007 1.047 0 .186.119 2.313 0 2.481-.12.169-.39-.05-.221.692.17.743 1.052 1.469 2.105 1.587s.848 1.215 2.393 1.806c1.544.59 3.513 1.958 5.177 1.266 1.663-.693 1.612-1.368 1.799-1.942s-.187-2.194.61-3.274c.799-1.08 1.902-2.447 1.783-3.105s-.136-.98-.832-.473c-.695.507-3.632 1.367-3.632 1.367s.9 2.97-.916 3.764-3.853.101-4.363-.354c-.509-.456-1.425-1.182-1.17-1.739.254-.557.17-1.08 2.053-1.502s4.09-.186 6.077-1.13c1.985-.946 4.056-2.043 4.514-3.241s.611-3.089.934-4.169c.322-1.08 1.561-3.122 2.291-3.359.73-.236 2.92-.32 3.429-1.232s1.358-3.206 1.018-5.62-.73-4.624-2.257-5.35-4.345-.473-6.535-.068-3.004.929-3.632 1.384c-.628.456-1.562 1.064-1.528 1.418z"/><path d="M24.225 19.325s-.492-.118-.798.608c-.305.725-1.086 2.177-.95 3.881.135 1.705.865 3.021.712 4.017-.152.996-.322 1.502-.509 1.62-.186.119-.492.49.374.692.865.203 1.375-.168 1.748-.388s1.239-.084 1.867.98c.628 1.063 1.714 3.73 2.648 3.982.933.254 2.342.17 2.46.844.12.675-.406.928-.474.962s-1.087.338-.968.71c.119.37 1.07.556 1.273 1.147.204.59.577.911.832 1.215s-.051 2.38.187 2.464c.237.085.865.203.967-.169.102-.371-.255-2.194 0-2.261s.713-.507.866-.912c.152-.405.509-.86 1.188-1.114.679-.253-.034-.692-.781-1.114-.747-.421-.662-1.097-.187-1.282s2.105-.102 2.767-1.03 1.595-3.325 2.257-3.983 1.358-.827 1.952-.253 1.715.203 1.732 0-1.12-2.143-.985-2.852.883-2.97.832-3.916-.374-3.274-.866-3.696-1.205.658-2.054 1.266c-.848.607-1.408 1.215-3.19.675s-3.022-.321-4.447-.372-4.108.507-4.736.473-2.173-.827-2.682-1.3c-.509-.472-.61-.725-1.018-.894z"/></g><defs><clipPath id="a"><path d="M9 16h48v32H9z"/></clipPath></defs></svg>
